src/main/webapp/data/rwa.svg

<svg height="720" viewBox="0 0 1080 720" width="1080" xmlns="http://www.w3.org/2000/svg" xmlns:xlink="http://www.w3.org/1999/xlink"><path d="m0 0h1080v360h-1080z" fill="#00a1de"/><path d="m0 360h1080v180h-1080z" fill="#fad201"/><path d="m0 540h1080v180h-1080z" fill="#20603d"/><g transform="translate(886.5 188.1)"><g id="a"><path id="b" d="m116.1 0-80.40798 4.69894 76.45197 25.34995-78.88433-16.27229 67.28589 44.2734-71.98483-36.13459 53.53438 60.17969-60.17969-53.53438 36.13459 71.98483-44.2734-67.28589 16.27229 78.88433-25.34995-76.45197-4.69894 80.40798-1-117.1z" fill="#e5be01"/><use transform="scale(1 -1)" xlink:href="#b"/></g><use transform="scale(-1 1)" xlink:href="#a"/><circle fill="#e5be01" r="34.3" stroke="#00a1de" stroke-width="3.4"/></g></svg>

<?xml version="1.0" encoding="UTF-8"?>
<!DOCTYPE svg PUBLIC "-//W3C//DTD SVG 1.1//EN" "http://www.w3.org/Graphics/SVG/1.1/DTD/svg11.dtd">
<svg xmlns="http://www.w3.org/2000/svg" version="1.1" xmlns:xlink="http://www.w3.org/1999/xlink" width="1080" height="720" viewBox="0 0 1080 720">
<title>Flag of Rwanda</title>
<rect width="1080" height="360" fill="#00a1de"/>
<rect y="360" width="1080" height="180" fill="#fad201"/>
<rect y="540" width="1080" height="180" fill="#20603d"/>
<g transform="translate(886.5,188.1)">
	<g id="h">
		<path id="q" d="M 116.10000,0.00000 L 35.69202,4.69894 112.14399,30.04889 33.25966,13.77660 100.54555,58.05000 28.56072,21.91541 82.09510,82.09510 21.91541,28.56072 58.05000,100.54555 13.77660,33.25966 30.04889,112.14399 4.69894,35.69202 0.00000,116.10000 -1,-1 z" fill="#e5be01"/>
		<use xlink:href="#q" transform="scale(1,-1)"/>
	</g>
	<use xlink:href="#h" transform="scale(-1,1)"/>
	<circle r="34.3" fill="#e5be01" stroke="#00a1de" stroke-width="3.4"/>
</g>
</svg>
